X:1
T:The Blacksmith
M:4/4
L:1/8
K:C
z6A3/2G/2|F2D2F2G2|c6G2|A2D2C2D2-|D6A3/2G/2|F2D2F2G2|c6G2|A2D2C2D2-|D6F3/2A/2|c2c2d2d2|A6G2|F2D2F2G2-|G6DE|F2G2A2BG|A6E2|F2G2E2D2-|D4z4
w:A - black-smith court-ed me, nine months and bet-ter_He - fair-ly won my heart, wrote me a let-ter_With his ham-mer in his hand, he looked so clev-er_And if I was with m-y love, I'd live for ev-er._
|]
Contact us
